images/pencil.svg

<svg width="16" height="16" viewBox="0 0 16 16" fill="none" xmlns="http://www.w3.org/2000/svg">
<rect x="13.0676" y="4.54513" width="11.6506" height="3.21396" transform="rotate(135 13.0676 4.54513)" fill="#212121"/>
<path d="M14.2036 1.13628C14.8312 1.76384 14.8312 2.78132 14.2036 3.40889L13.6355 3.97704L11.3628 1.70443L11.931 1.13628C12.5586 0.508711 13.576 0.508711 14.2036 1.13628Z" fill="#212121"/>
<path d="M1.54021 13.1538L2.55674 10.5108L4.82935 12.7834L2.18638 13.8C1.78201 13.9555 1.38469 13.5582 1.54021 13.1538Z" fill="#212121"/>
</svg>

<svg xmlns="http://www.w3.org/2000/svg" width="16" height="16" fill="none" viewBox="0 0 16 16"><path fill="#212121" d="M13.067 4.546 4.83 12.784l-2.273-2.273 8.239-8.238zm1.137-3.41a1.607 1.607 0 0 1 0 2.273l-.569.568-2.272-2.273.568-.568a1.607 1.607 0 0 1 2.273 0"/><path fill="#212121" d="m1.54 13.154 1.017-2.643 2.272 2.272L2.186 13.8a.5.5 0 0 1-.646-.646"/></svg>
